svg/l/AD.svg

<svg width="32" height="24" viewBox="0 0 32 24" fill="none" xmlns="http://www.w3.org/2000/svg">
<mask id="mask0" mask-type="alpha" maskUnits="userSpaceOnUse" x="0" y="0" width="32" height="24">
<rect width="32" height="24" fill="white"/>
</mask>
<g mask="url(#mask0)">
<path fill-rule="evenodd" clip-rule="evenodd" d="M8 0H24V24H8V0Z" fill="#FFD018"/>
<path fill-rule="evenodd" clip-rule="evenodd" d="M0 0H8V24H0V0Z" fill="#2E42A5"/>
<path fill-rule="evenodd" clip-rule="evenodd" d="M24 0H32V24H24V0Z" fill="#E31D1C"/>
<path fill-rule="evenodd" clip-rule="evenodd" d="M16.2991 19.4236C16.5201 19.3615 16.7102 18.9772 16.7102 18.9772C16.7102 18.9772 16.8545 19.09 17.0834 19.2048C17.3122 19.3195 17.5501 18.9772 17.5501 18.9772C17.5501 18.9772 17.8751 18.9772 18.0176 18.5937C18.1602 18.2103 17.7332 18.046 17.7332 18.046C17.7332 18.046 18.2323 17.5217 19.0749 17.5217C19.9176 17.5217 20.5734 17.5217 21.1232 17.2883C21.6731 17.0549 22.2073 16.6536 22.4072 15.8203C22.6071 14.9869 21.9744 14.4621 21.9744 14.4621C21.9744 14.4621 22.1145 14.5064 22.4072 14.267C22.6999 14.0276 22.2281 13.2572 21.9744 13.2572C21.7208 13.2572 21.6906 13.3998 21.6906 13.3998C21.6906 13.3998 21.5339 13.2638 21.3192 12.8014C21.1044 12.339 21.5339 11.933 21.5339 11.933C21.5339 11.933 21.7692 12.0679 21.9744 11.8454C22.1797 11.623 21.8678 11.2821 21.8678 11.2821C21.8678 11.2821 22.8559 10.9458 22.713 9.68177C22.5702 8.41774 21.2673 8.48963 21.2673 8.48963C21.2673 8.48963 21.3068 8.27946 21.1232 8.15968C20.9397 8.03991 20.8036 8.27946 20.8036 8.27946C20.6596 7.94606 21.082 7.48997 21.42 7.12497C21.5247 7.01186 21.6214 6.90751 21.6906 6.81826C21.983 6.44099 21.7994 5.9749 20.731 5.46617C19.6625 4.95744 19.0792 5.64116 18.9936 5.88344C18.908 6.12571 19.2395 6.27563 19.2395 6.27563C18.9691 6.51292 18.4461 6.60353 18.0897 6.43958C17.7332 6.27563 17.8912 5.77705 17.9649 5.64116C17.973 5.62629 17.9837 5.60827 17.9961 5.58746C18.0968 5.4181 18.3075 5.06401 18.0897 4.71967C17.8451 4.33302 17.4216 4.33302 17.0834 4.55258C16.7938 4.74051 16.3823 4.84015 16.2696 4.86497C16.157 4.84015 15.7455 4.74051 15.4559 4.55258C15.1177 4.33302 14.6942 4.33302 14.4496 4.71967C14.2318 5.06401 14.4424 5.4181 14.5432 5.58746C14.5556 5.60827 14.5663 5.62629 14.5744 5.64116C14.6481 5.77705 14.8061 6.27563 14.4496 6.43958C14.0931 6.60353 13.5702 6.51292 13.2998 6.27563C13.2998 6.27563 13.6313 6.12571 13.5457 5.88344C13.4601 5.64116 12.8768 4.95744 11.8083 5.46617C10.7399 5.9749 10.5563 6.44099 10.8487 6.81826C10.9179 6.90751 11.0145 7.01186 11.1193 7.12497C11.4573 7.48997 11.8797 7.94606 11.7356 8.27946C11.7356 8.27946 11.5996 8.03991 11.4161 8.15968C11.2325 8.27946 11.272 8.48963 11.272 8.48963C11.272 8.48963 9.9691 8.41774 9.82625 9.68177C9.68341 10.9458 10.6715 11.2821 10.6715 11.2821C10.6715 11.2821 10.3596 11.623 10.5648 11.8454C10.7701 12.0679 11.0054 11.933 11.0054 11.933C11.0054 11.933 11.4348 12.339 11.2201 12.8014C11.0054 13.2638 10.8487 13.3998 10.8487 13.3998C10.8487 13.3998 10.8185 13.2572 10.5648 13.2572C10.3112 13.2572 9.83938 14.0276 10.1321 14.267C10.4247 14.5064 10.5648 14.4621 10.5648 14.4621C10.5648 14.4621 9.93218 14.9869 10.1321 15.8203C10.332 16.6536 10.8662 17.0549 11.4161 17.2883C11.9659 17.5217 12.6217 17.5217 13.4644 17.5217C14.307 17.5217 14.8061 18.046 14.8061 18.046C14.8061 18.046 14.3791 18.2103 14.5217 18.5937C14.6642 18.9772 14.9891 18.9772 14.9891 18.9772C14.9891 18.9772 15.2271 19.3195 15.4559 19.2048C15.6847 19.09 15.8291 18.9772 15.8291 18.9772C15.8291 18.9772 16.0192 19.3615 16.2402 19.4236V19.4321C16.25 19.4321 16.2599 19.4313 16.2696 19.4299C16.2794 19.4313 16.2892 19.4321 16.2991 19.4321V19.4236Z" fill="#BF9937"/>
<path d="M12.1101 15.9978L12.2152 15.7437C13.4229 16.2614 14.7972 16.5206 16.3391 16.5206C17.8802 16.5206 19.2175 16.2617 20.3521 15.7449L20.4627 15.9966C19.2913 16.5301 17.9165 16.7963 16.3391 16.7963C14.7625 16.7963 13.3525 16.5304 12.1101 15.9978Z" fill="#805440"/>
<path fill-rule="evenodd" clip-rule="evenodd" d="M12.4783 7.23273H16.2014H16.2955H20.0186V14.2625C20.0186 14.2625 20.0173 14.883 19.3613 15.1543C18.7054 15.4256 17.9338 15.3285 17.9338 15.3285C17.9338 15.3285 17.1955 15.1697 16.8058 15.3285C16.5668 15.4258 16.3937 15.4739 16.2955 15.4966V15.5151C16.2955 15.5151 16.2796 15.513 16.2485 15.5068C16.2173 15.513 16.2014 15.5151 16.2014 15.5151V15.4966C16.1032 15.4739 15.9301 15.4258 15.6912 15.3285C15.3014 15.1697 14.5631 15.3285 14.5631 15.3285C14.5631 15.3285 13.7915 15.4256 13.1356 15.1543C12.4796 14.883 12.4783 14.2625 12.4783 14.2625V7.23273Z" fill="#BF9937"/>
<mask id="mask1" mask-type="alpha" maskUnits="userSpaceOnUse" x="12" y="7" width="9" height="9">
<path fill-rule="evenodd" clip-rule="evenodd" d="M12.4783 7.23273H16.2014H16.2955H20.0186V14.2625C20.0186 14.2625 20.0173 14.883 19.3613 15.1543C18.7054 15.4256 17.9338 15.3285 17.9338 15.3285C17.9338 15.3285 17.1955 15.1697 16.8058 15.3285C16.5668 15.4258 16.3937 15.4739 16.2955 15.4966V15.5151C16.2955 15.5151 16.2796 15.513 16.2485 15.5068C16.2173 15.513 16.2014 15.5151 16.2014 15.5151V15.4966C16.1032 15.4739 15.9301 15.4258 15.6912 15.3285C15.3014 15.1697 14.5631 15.3285 14.5631 15.3285C14.5631 15.3285 13.7915 15.4256 13.1356 15.1543C12.4796 14.883 12.4783 14.2625 12.4783 14.2625V7.23273Z" fill="white"/>
</mask>
<g mask="url(#mask1)">
<rect x="12.3729" y="7.14447" width="3.65625" height="3.9" fill="#D00F3A"/>
<path fill-rule="evenodd" clip-rule="evenodd" d="M16.4354 7.14447H20.2271V11.0445H16.4354V7.14447Z" fill="#FEDF00"/>
<path fill-rule="evenodd" clip-rule="evenodd" d="M16.4354 11.4778H20.0917V15.5222H16.4354V11.4778Z" fill="#FEDF00"/>
<rect x="12.3729" y="11.4778" width="3.65625" height="4.04444" fill="#FEDF00"/>
<path fill-rule="evenodd" clip-rule="evenodd" d="M19.1437 13.2985C19.1437 13.2985 19.3136 13.1262 19.3136 12.7192C19.3136 12.3122 19.4568 12.0429 19.1437 12.0429C18.8306 12.0429 18.4054 12.0429 18.106 12.0429C17.8067 12.0429 17.9604 12.2238 17.6594 12.0429C17.3583 11.862 17.1157 11.9195 17.1157 12.0429C17.1157 12.1663 17.4195 12.112 17.4195 12.3626C17.4195 12.6132 17.5345 12.3953 17.5345 12.8469C17.5345 13.2985 17.598 13.2227 17.6287 13.2227C17.6594 13.2227 17.6594 13.1411 17.6594 13.0224C17.6594 12.9037 17.6441 12.4248 17.7276 12.572C17.8111 12.7192 17.8524 12.6496 17.8936 12.8169C17.9348 12.9842 18.0457 13.1469 17.9697 13.2227C17.8936 13.2985 17.7401 13.3637 17.8549 13.3637C17.9697 13.3637 18.1365 13.1711 18.0531 12.8469C17.9697 12.5227 18.1567 12.8169 18.1567 12.8169C18.1567 12.8169 18.5988 12.915 18.6273 12.7804C18.6557 12.6457 18.6963 12.9092 18.8161 12.9092C18.9359 12.9092 18.7005 13.1802 18.6015 13.2227C18.5026 13.2652 18.6015 13.2985 18.6015 13.2985C18.6015 13.2985 18.6938 13.3744 18.7549 13.2985C18.8161 13.2227 19.0349 12.9747 19.0349 12.8469C19.0349 12.7192 19.1751 12.7959 19.1751 12.9092C19.1751 13.0224 19.045 13.4288 19.0943 13.3637C19.1437 13.2985 19.1437 13.2985 19.1437 13.2985Z" fill="#D00F3A"/>
<path fill-rule="evenodd" clip-rule="evenodd" d="M19.1437 14.8875C19.1437 14.8875 19.3136 14.7151 19.3136 14.3081C19.3136 13.9011 19.4568 13.6318 19.1437 13.6318C18.8306 13.6318 18.4054 13.6318 18.106 13.6318C17.8067 13.6318 17.9604 13.8128 17.6594 13.6318C17.3583 13.4509 17.1157 13.5085 17.1157 13.6318C17.1157 13.7552 17.4195 13.7009 17.4195 13.9515C17.4195 14.2021 17.5345 13.9842 17.5345 14.4358C17.5345 14.8875 17.598 14.8117 17.6287 14.8117C17.6594 14.8117 17.6594 14.7301 17.6594 14.6113C17.6594 14.4926 17.6441 14.0137 17.7276 14.1609C17.8111 14.3081 17.8524 14.2386 17.8936 14.4058C17.9348 14.5731 18.0457 14.7358 17.9697 14.8117C17.8936 14.8875 17.7401 14.9526 17.8549 14.9526C17.9697 14.9526 18.1365 14.76 18.0531 14.4358C17.9697 14.1117 18.1567 14.4058 18.1567 14.4058C18.1567 14.4058 18.5988 14.504 18.6273 14.3693C18.6557 14.2347 18.6963 14.4981 18.8161 14.4981C18.9359 14.4981 18.7005 14.7692 18.6015 14.8117C18.5026 14.8542 18.6015 14.8875 18.6015 14.8875C18.6015 14.8875 18.6938 14.9633 18.7549 14.8875C18.8161 14.8117 19.0349 14.5636 19.0349 14.4358C19.0349 14.3081 19.1751 14.3848 19.1751 14.4981C19.1751 14.6113 19.045 15.0177 19.0943 14.9526C19.1437 14.8875 19.1437 14.8875 19.1437 14.8875Z" fill="#D00F3A"/>
<path fill-rule="evenodd" clip-rule="evenodd" d="M14.2099 10.2977C14.2099 10.4628 14.126 10.5888 13.9346 10.7819L13.9094 10.8072L13.8581 10.8587C13.8304 10.8869 13.8091 10.9093 13.7905 10.9303C13.6271 11.1149 13.3411 10.9557 13.2679 10.7765C13.2562 10.7478 13.1988 10.6448 13.1055 10.4834L13.1003 10.4746L13.0453 10.3797L12.9952 10.2937C12.9586 10.2306 12.9393 10.1971 12.9298 10.1795C12.9231 10.1673 12.8853 10.1815 12.8189 10.2662C12.7936 10.2985 12.8455 10.4089 13.0106 10.5855L12.917 10.6898C12.6872 10.4657 12.576 10.3205 12.576 10.2199C12.576 10.0519 12.7111 9.96169 12.9627 9.96169C13.121 9.96169 13.2054 10.0732 13.3321 10.3537L13.3645 10.4255C13.4269 10.5641 13.467 10.6396 13.5157 10.7011C13.5735 10.7741 13.6082 10.7706 13.6678 10.6954C13.7266 10.6213 13.7809 10.5057 13.8625 10.2977C13.8711 10.2757 13.8787 10.2572 13.885 10.2417C13.9025 10.1985 13.9105 10.1788 13.9055 10.1746C13.9013 10.1711 13.8881 10.1783 13.8638 10.1916C13.8551 10.1964 13.845 10.202 13.8334 10.2081L13.7702 10.2413L13.1962 8.86204L14.2823 7.54329V10.2897L14.2127 10.2268C14.211 10.2457 14.2099 10.2695 14.2099 10.2977ZM14.2875 10.2945L14.2823 10.2992V10.2897L14.2875 10.2945ZM14.2927 10.2897V10.2992L14.2875 10.2945L14.2927 10.2897ZM14.2927 7.54329L15.3789 8.86204L14.8048 10.2413L14.7416 10.2081C14.6976 10.1849 14.6752 10.1698 14.6695 10.1746C14.6627 10.1803 14.6799 10.2146 14.7125 10.2977C14.7941 10.5057 14.8484 10.6213 14.9072 10.6954C14.9669 10.7706 15.0015 10.7741 15.0593 10.7011C15.108 10.6396 15.1481 10.5641 15.2106 10.4255L15.2429 10.3537C15.3696 10.0732 15.4541 9.96169 15.6123 9.96169C15.8639 9.96169 15.999 10.0519 15.999 10.2199C15.999 10.3205 15.8878 10.4657 15.658 10.6898L15.5644 10.5855C15.7295 10.4089 15.7814 10.2985 15.7561 10.2662C15.6897 10.1815 15.6519 10.1673 15.6453 10.1795C15.6357 10.1971 15.6165 10.2306 15.5798 10.2937L15.5297 10.3797L15.4747 10.4746L15.4696 10.4834C15.3763 10.6448 15.3189 10.7478 15.3071 10.7765C15.2339 10.9557 14.948 11.1149 14.7845 10.9303C14.7659 10.9093 14.7447 10.8869 14.7169 10.8587C14.708 10.8497 14.6845 10.8261 14.6656 10.8072C14.654 10.7955 14.6441 10.7856 14.6404 10.7819C14.449 10.5888 14.3651 10.4628 14.3651 10.2977C14.3651 10.2695 14.364 10.2457 14.3623 10.2268L14.2927 10.2897V7.54329ZM14.2927 7.54329L14.2875 7.53697L14.2927 7.53064V7.54329ZM14.2875 7.53697L14.2823 7.54329V7.53064L14.2875 7.53697ZM14.2204 10.1837L14.2225 10.1803L14.2218 10.1815L14.2204 10.1837Z" fill="white"/>
<path fill-rule="evenodd" clip-rule="evenodd" d="M14.2785 10.0497V7.82294L15.2199 8.8879L14.7364 10.0497C14.5581 9.98767 14.4957 10.1192 14.5876 10.3534C14.6423 10.4929 14.6855 10.5934 14.7277 10.6711C14.5673 10.5085 14.5005 10.4069 14.5005 10.2977C14.5005 10.2093 14.4923 10.1485 14.4709 10.1086C14.4608 10.0898 14.3762 10.0716 14.322 10.06C14.3008 10.0555 14.2843 10.052 14.2785 10.0497ZM13.8387 10.0497L13.3551 8.8879L14.2737 7.83112V10.0579C14.2677 10.0602 14.2521 10.0632 14.2326 10.067C14.1849 10.0763 14.1141 10.09 14.1042 10.1086C14.0827 10.1485 14.0745 10.2093 14.0745 10.2977C14.0745 10.4069 14.0077 10.5085 13.8474 10.6711C13.8895 10.5934 13.9328 10.4929 13.9875 10.3534C14.0793 10.1192 14.0169 9.98767 13.8387 10.0497Z" fill="#FEDF00"/>
<path fill-rule="evenodd" clip-rule="evenodd" d="M13.1854 11.4778H12.7792V15.5223H13.1854V11.4778ZM13.9979 11.4778H13.5917V15.5223H13.9979V11.4778ZM14.4042 11.4778H14.8104V15.5223H14.4042V11.4778ZM15.6229 11.4778H15.2167V15.5223H15.6229V11.4778Z" fill="#D00F3A"/>
<path fill-rule="evenodd" clip-rule="evenodd" d="M17.3833 7.14447H16.9771V11.1889H17.3833V7.14447ZM18.1958 7.14447H17.7896V11.1889H18.1958V7.14447ZM18.6021 7.14447H19.0083V11.1889H18.6021V7.14447ZM19.8208 7.14447H19.4146V11.1889H19.8208V7.14447Z" fill="#D00F3A"/>
</g>
</g>
</svg>

<svg width="32" height="24" fill="none" xmlns="http://www.w3.org/2000/svg">
  <mask id="a" maskUnits="userSpaceOnUse" x="0" y="0" width="32" height="24">
    <path fill="#fff" d="M0 0h32v24H0z"/>
  </mask>
  <g mask="url(#a)">
    <path fill-rule="evenodd" clip-rule="evenodd" d="M8 0h16v24H8V0z" fill="#FFD018"/>
    <path fill-rule="evenodd" clip-rule="evenodd" d="M0 0h8v24H0V0z" fill="#2E42A5"/>
    <path fill-rule="evenodd" clip-rule="evenodd" d="M24 0h8v24h-8V0z" fill="#E31D1C"/>
    <path fill-rule="evenodd" clip-rule="evenodd" d="M16.3 19.424c.22-.063.41-.447.41-.447s.145.113.373.228c.23.115.467-.228.467-.228s.325 0 .468-.383c.142-.384-.285-.548-.285-.548s.5-.524 1.342-.524c.843 0 1.498 0 2.048-.234.55-.233 1.084-.634 1.284-1.468.2-.833-.433-1.358-.433-1.358s.14.044.433-.195c.293-.24-.179-1.01-.433-1.01-.253 0-.283.143-.283.143s-.157-.136-.372-.599c-.215-.462.215-.868.215-.868s.235.135.44-.088c.206-.222-.106-.563-.106-.563s.988-.336.845-1.6c-.143-1.264-1.446-1.192-1.446-1.192s.04-.21-.144-.33c-.183-.12-.32.12-.32.12-.143-.334.279-.79.617-1.155a4.68 4.68 0 00.27-.307c.293-.377.11-.843-.959-1.352-1.069-.509-1.652.175-1.737.417-.086.243.245.393.245.393-.27.237-.793.328-1.15.164-.356-.164-.198-.663-.124-.799l.031-.054c.1-.169.312-.523.094-.867-.245-.387-.668-.387-1.007-.167-.29.188-.7.287-.813.312-.113-.025-.524-.124-.814-.312-.338-.22-.762-.22-1.006.167-.218.344-.008.698.093.867l.031.054c.074.136.232.635-.124.799-.357.164-.88.073-1.15-.164 0 0 .331-.15.246-.393-.086-.242-.67-.926-1.738-.417-1.068.509-1.252.975-.96 1.352.07.09.166.194.271.307.338.365.76.821.617 1.154 0 0-.136-.24-.32-.12s-.144.33-.144.33-1.303-.071-1.446 1.193c-.143 1.264.845 1.6.845 1.6s-.311.341-.106.563c.205.223.44.088.44.088s.43.406.215.868c-.215.463-.371.599-.371.599s-.03-.143-.284-.143-.726.77-.433 1.01.433.195.433.195-.633.525-.433 1.358c.2.834.734 1.235 1.284 1.468.55.234 1.206.234 2.048.234.843 0 1.342.524 1.342.524s-.427.164-.284.548c.142.383.467.383.467.383s.238.343.467.228c.229-.115.373-.228.373-.228s.19.384.411.447v.008c.01 0 .02 0 .03-.002l.03.002v-.008z" fill="#BF9937"/>
    <path d="M12.11 15.998l.105-.254c1.208.517 2.582.777 4.124.777 1.541 0 2.879-.26 4.013-.776l.11.252c-1.17.533-2.546.8-4.123.8-1.576 0-2.986-.267-4.229-.8z" fill="#805440"/>
    <path fill-rule="evenodd" clip-rule="evenodd" d="M12.478 7.233h7.541v7.03s-.002.62-.658.891c-.656.272-1.427.175-1.427.175s-.738-.16-1.128 0a3.42 3.42 0 01-.51.168v.018l-.047-.008a.81.81 0 01-.048.008v-.018a3.42 3.42 0 01-.51-.168c-.39-.16-1.128 0-1.128 0s-.771.097-1.427-.175a1.022 1.022 0 01-.658-.892v-7.03z" fill="#BF9937"/>
    <mask id="b" maskUnits="userSpaceOnUse" x="12" y="7" width="9" height="9">
      <path fill-rule="evenodd" clip-rule="evenodd" d="M12.478 7.233h7.541v7.03s-.002.62-.658.891c-.656.272-1.427.175-1.427.175s-.738-.16-1.128 0a3.42 3.42 0 01-.51.168v.018l-.047-.008a.81.81 0 01-.048.008v-.018a3.42 3.42 0 01-.51-.168c-.39-.16-1.128 0-1.128 0s-.771.097-1.427-.175a1.022 1.022 0 01-.658-.892v-7.03z" fill="#fff"/>
    </mask>
    <g mask="url(#b)">
      <path fill="#D00F3A" d="M12.373 7.144h3.656v3.9h-3.656z"/>
      <path fill-rule="evenodd" clip-rule="evenodd" d="M16.435 7.144h3.792v3.9h-3.792v-3.9zm0 4.334h3.657v4.044h-3.657v-4.044z" fill="#FEDF00"/>
      <path fill="#FEDF00" d="M12.373 11.478h3.656v4.044h-3.656z"/>
      <path fill-rule="evenodd" clip-rule="evenodd" d="M19.144 13.299s.17-.173.17-.58.143-.676-.17-.676h-1.038c-.3 0-.146.18-.447 0-.3-.181-.543-.123-.543 0s.304.069.304.32c0 .25.114.032.114.484 0 .452.064.376.095.376.03 0 .03-.082.03-.2 0-.12-.015-.598.069-.451.083.147.124.078.166.245.04.167.152.33.076.406-.076.075-.23.14-.115.14s.282-.192.198-.516c-.083-.324.104-.03.104-.03s.442.098.47-.037c.029-.134.07.13.19.13.119 0-.116.27-.215.313-.1.042 0 .075 0 .075s.092.076.153 0c.061-.075.28-.323.28-.451s.14-.051.14.062c0 .113-.13.52-.08.455l.049-.066zm0 1.588s.17-.172.17-.579.143-.676-.17-.676h-1.038c-.3 0-.146.18-.447 0-.3-.181-.543-.123-.543 0s.304.069.304.32c0 .25.114.032.114.484 0 .451.064.376.095.376.03 0 .03-.082.03-.2 0-.12-.015-.598.069-.451.083.147.124.078.166.245.04.167.152.33.076.406-.076.075-.23.14-.115.14s.282-.192.198-.516c-.083-.324.104-.03.104-.03s.442.098.47-.037c.029-.134.07.13.19.13.119 0-.116.27-.215.313-.1.042 0 .075 0 .075s.092.076.153 0c.061-.075.28-.323.28-.451s.14-.051.14.062c0 .113-.13.52-.08.455l.049-.066z" fill="#D00F3A"/>
      <path fill-rule="evenodd" clip-rule="evenodd" d="M14.21 10.298c0 .165-.084.29-.275.484l-.026.025-.05.052c-.029.028-.05.05-.069.071-.163.185-.449.026-.522-.153a4.658 4.658 0 00-.163-.294l-.005-.008-.055-.095-.05-.086a5.797 5.797 0 01-.065-.114c-.007-.013-.045.002-.111.086-.025.033.026.143.192.32l-.094.104c-.23-.224-.341-.37-.341-.47 0-.168.135-.258.387-.258.158 0 .242.111.37.392l.031.072c.063.138.103.214.152.275.057.073.092.07.152-.006.059-.074.113-.19.195-.397l.022-.056c.018-.044.026-.063.02-.067-.004-.004-.017.003-.041.017l-.03.016-.064.033-.574-1.379 1.086-1.319v2.747l-.07-.063a.805.805 0 00-.002.07zm.077-.004l-.005.005v-.01l.005.005zm.006-.004v.01l-.005-.006.005-.004zm0-2.747l1.086 1.319-.574 1.38-.063-.034c-.044-.023-.067-.038-.073-.033-.006.005.01.04.043.123.082.208.136.323.195.397.06.076.095.08.152.006.049-.061.09-.137.152-.276l.032-.071c.127-.28.211-.392.37-.392.25 0 .386.09.386.258 0 .1-.111.246-.341.47l-.094-.104c.165-.177.217-.287.192-.32-.066-.085-.104-.099-.11-.086l-.066.114-.05.086-.055.095-.005.008a5.045 5.045 0 00-.163.293c-.073.18-.359.339-.523.154a1.836 1.836 0 00-.118-.123l-.026-.025c-.191-.193-.275-.32-.275-.484a.805.805 0 00-.003-.071l-.07.063V7.543zm0 0l-.005-.006.005-.006v.012zm-.005-.006l-.006.006v-.012l.005.006zm-.068 2.647l.002-.004v.002l-.002.002z" fill="#fff"/>
      <path fill-rule="evenodd" clip-rule="evenodd" d="M14.278 10.05V7.823l.942 1.065-.484 1.162c-.178-.062-.24.07-.148.303.054.14.098.24.14.318-.16-.162-.227-.264-.227-.373a.419.419 0 00-.03-.19c-.01-.018-.095-.036-.149-.048l-.043-.01zm-.44 0l-.483-1.162.919-1.057v2.227l-.041.009c-.048.01-.119.023-.129.042-.021.04-.03.1-.03.189 0 .109-.066.21-.227.373.043-.078.086-.178.14-.318.092-.234.03-.365-.148-.303z" fill="#FEDF00"/>
      <path fill-rule="evenodd" clip-rule="evenodd" d="M13.185 11.478h-.406v4.044h.406v-4.044zm.813 0h-.406v4.044h.406v-4.044zm.406 0h.406v4.044h-.406v-4.044zm1.219 0h-.406v4.044h.406v-4.044zm1.76-4.334h-.406v4.045h.406V7.144zm.813 0h-.406v4.045h.406V7.144zm.406 0h.406v4.045h-.406V7.144zm1.219 0h-.406v4.045h.406V7.144z" fill="#D00F3A"/>
    </g>
  </g>
</svg>
